;generated by ffslicer 1.26.2 01/23/21 12:17:15
;layer_height: 0.18
;perimeter_shells: 2
;top_solid_layers: 4
;bottom_solid_layers: 3
;fill_density: 15%
;fill_pattern: hexagon
;base_print_speed: 60
;travel_speed: 80
;right_extruder_temperature: 210
;left_extruder_temperature: 0
;platform_temperature: 50
;right_extruder_temperature_raft0: 215
;left_extruder_temperature_raft0: 0
;right_extruder_temperature_reset: 
;left_extruder_temperature_reset: 
;start gcode
M118 X56.63 Y51.81 Z19.27 T0
M140 S50 T0
M104 S215 T0
M104 S0 T1
M107
G90
G28
M132 X Y Z A B
G1 Z50.000 F420
G161 X Y F3300
M7 T0
M6 T0
M651
;layer_count: 105
M108 T0
G1 X-56.60 Y-19.31 F4800
;preExtrude:0.20
;preExtruder0
M106
G1 Z.200 F420
G1 X-56.60 Y-19.31 F4800
G1 X-56.63 Y-35.81 E2.3927 F1200
G1 X-56.55 Y-36.66 E2.5165
G1 X-56.22 Y-38.17 E2.7407
G1 X-56.02 Y-38.70 E2.8228
G1 X-55.25 Y-40.25 E3.0738
G1 X-54.81 Y-40.85 E3.1817
G1 X-53.75 Y-42.02 E3.4107
G1 X-53.15 Y-42.50 E3.5221
G1 X-51.75 Y-43.39 E3.7626
G1 X-51.10 Y-43.66 E3.8647
G1 X-49.45 Y-44.15 E4.1143
G1 X-44.63 Y-45.25 E4.8313
G1 X-39.99 Y-46.26 E5.5199
G1 X-35.30 Y-47.20 E6.2135
G1 X-30.60 Y-48.05 E6.9061
G1 X-25.90 Y-48.82 E7.5968
G1 X-21.17 Y-49.50 E8.2898
G1 X-16.44 Y-50.10 E8.9812
G1 X-11.70 Y-50.60 E9.6724
G1 X-6.94 Y-51.03 E10.3654
G1 X-2.19 Y-51.37 E11.0560
G1 X2.59 Y-51.64 E11.7503
G1 X7.28 Y-51.81 E12.4309
G1 X39.88 Y-51.81 E17.1583
G1 X41.54 Y-51.57 E17.4015
;raft
;layer:0.40
;support-start
;raft
G1 E12.4015 F1500
G1 Z.400 F420
G1 X41.20 Y-50.05 F4200
G1 E17.4015 F1500
G1 X41.20 Y-50.05 F4200
G1 X42.44 Y-49.66 E17.7550 F300
G1 X43.37 Y-49.21 E18.0359
G1 X44.14 Y-48.73 E18.2826
G1 X44.83 Y-48.17 E18.5242
G1 X45.45 Y-47.56 E18.7607
G1 X46.02 Y-46.86 E19.0062
G1 X46.43 Y-46.24 E19.2083
G1 X48.23 Y-45.36 E19.7531
G1 X49.98 Y-44.23 E20.3195
G1 X51.60 Y-42.93 E20.8842
G1 X53.09 Y-41.42 E21.4610
G1 X53.98 Y-40.28 E21.8543
G1 X54.48 Y-39.32 E22.1486
G1 X54.62 Y-38.94 E22.2587
G1 X54.84 Y-37.87 E22.5557
G1 X54.85 Y-37.58 E22.6346
G1 X54.79 Y-36.56 E22.9125
G1 X54.73 Y-36.29 E22.9877
G1 X54.38 Y-35.25 E23.2860
G1 X53.85 Y-34.35 E23.5700
G1 X53.67 Y-34.13 E23.6473
G1 X52.87 Y-33.36 E23.9492
G1 X51.94 Y-32.78 E24.2472
G1 X51.30 Y-32.52 E24.4350
G1 X50.74 Y-32.24 E24.6053
G1 X50.26 Y-31.95 E24.7578
G1 X49.81 Y-31.62 E24.9095
G1 X49.37 Y-31.23 E25.0694
G1 X48.96 Y-30.79 E25.2329
G1 X48.63 Y-30.38 E25.3760
G1 X48.29 Y-29.84 E25.5495
G1 X48.04 Y-29.38 E25.6919
G1 X47.80 Y-28.80 E25.8625
G1 X47.65 Y-28.32 E25.9993
G1 X47.23 Y-26.53 E26.4992
G1 X46.93 Y-25.72 E26.7340
G1 X46.53 Y-24.91 E26.9797
G1 X46.06 Y-24.18 E27.2157
G1 X45.51 Y-23.50 E27.4535
G1 X44.86 Y-22.85 E27.7035
G1 X44.20 Y-22.32 E27.9336
G1 X43.44 Y-21.82 E28.1810
G1 X42.66 Y-21.42 E28.4193
G1 X41.80 Y-21.10 E28.6688
G1 X40.83 Y-20.86 E28.9405
G1 X39.77 Y-20.74 E29.2306
G1 X32.80 Y-20.74 E31.1258
G1 X32.85 Y-20.32 E31.2408
G1 X32.85 Y15.72 E41.0401
G1 X32.59 Y17.33 E41.4835
G1 X32.18 Y18.48 E41.8155
G1 X31.87 Y19.04 E41.9895
G1 X31.14 Y20.00 E42.3174
G1 X30.90 Y20.22 E42.4060
G1 X30.03 Y20.89 E42.7045
G1 X29.06 Y21.36 E42.9976
G1 X28.73 Y21.47 E43.0922
G1 X27.47 Y21.68 E43.4395
G1 X24.14 Y21.68 E44.3450
G1 X23.41 Y21.58 E44.5453
G1 X22.29 Y21.25 E44.8628
G1 X21.31 Y20.72 E45.1657
G1 X21.07 Y20.53 E45.2489
G1 X20.31 Y19.78 E45.5393
G1 X19.76 Y18.93 E45.8145
G1 X19.34 Y17.89 E46.1195
G1 X19.15 Y16.83 E46.4123
G1 X19.14 Y16.68 E46.4532
G1 X19.14 Y2.42 E50.3305
G1 X1.27 Y2.42 E55.1894
G1 X1.27 Y16.68 E59.0667
G1 X1.17 Y17.42 E59.2697
G1 X.84 Y18.54 E59.5872
G1 X.31 Y19.51 E59.8878
G1 X.12 Y19.75 E59.9710
G1 X-.63 Y20.51 E60.2613
G1 X-1.48 Y21.06 E60.5366
G1 X-2.52 Y21.48 E60.8416
G1 X-3.54 Y21.67 E61.1237
G1 X-5.24 Y21.68 E61.5859
G1 X-5.24 Y39.31 E66.3795
G1 X-5.41 Y40.60 E66.7333
G1 X-5.83 Y41.92 E67.1100
G1 X-6.39 Y42.96 E67.4311
G1 X-6.63 Y43.28 E67.5399
G1 X-7.50 Y44.18 E67.8802
G1 X-7.83 Y44.42 E67.9912
G1 X-8.79 Y44.96 E68.2907
G1 X-9.11 Y45.07 E68.3827
G1 X-10.20 Y45.33 E68.6874
G1 X-10.71 Y45.38 E68.8267
G1 X-14.16 Y45.38 E69.7648
G1 X-14.90 Y45.28 E69.9678
G1 X-16.02 Y44.95 E70.2853
G1 X-16.99 Y44.42 E70.5858
G1 X-17.23 Y44.23 E70.6691
G1 X-18.00 Y43.48 E70.9613
G1 X-18.55 Y42.63 E71.2366
G1 X-18.97 Y41.59 E71.5416
G1 X-19.15 Y40.53 E71.8339
G1 X-19.16 Y40.38 E71.8748
G1 X-19.16 Y17.03 E78.2237
G1 X-41.02 Y17.03 E84.1675
G1 X-41.02 Y40.38 E90.5164
G1 X-41.12 Y41.11 E90.7167
G1 X-41.46 Y42.23 E91.0350
G1 X-41.99 Y43.21 E91.3379
G1 X-42.17 Y43.45 E91.4195
G1 X-42.93 Y44.21 E91.7117
G1 X-43.77 Y44.76 E91.9847
G1 X-44.82 Y45.18 E92.2922
G1 X-45.87 Y45.37 E92.5823
G1 X-46.02 Y45.38 E92.6232
G1 X-49.48 Y45.38 E93.5640
G1 X-50.72 Y45.18 E93.9055
G1 X-51.55 Y44.88 E94.1455
G1 X-52.52 Y44.31 E94.4514
G1 X-52.99 Y43.91 E94.6192
G1 X-53.80 Y42.97 E94.9566
G1 X-54.36 Y41.95 E95.2730
G1 X-54.45 Y41.70 E95.3452
G1 X-54.86 Y40.23 E95.7602
G1 X-54.95 Y39.31 E96.0115
G1 X-54.95 Y13.60 E103.0021
G1 X-54.73 Y11.78 E103.5006
G1 X-54.42 Y10.69 E103.8087
G1 X-53.68 Y9.11 E104.2831
G1 X-53.24 Y8.48 E104.4920
G1 X-52.09 Y7.18 E104.9640
G1 X-52.26 Y7.10 E105.0151
G1 X-53.04 Y6.54 E105.2761
G1 X-53.85 Y5.68 E105.5974
G1 X-54.20 Y5.13 E105.7746
G1 X-54.66 Y4.12 E106.0764
G1 X-54.76 Y3.74 E106.1832
G1 X-54.95 Y2.47 E106.5324
G1 X-54.95 Y-17.31 E111.9106
G1 X-54.76 Y-18.68 E112.2867
G1 X-54.30 Y-20.06 E112.6822
G1 X-54.27 Y-20.14 E112.7054
G1 X-53.66 Y-21.16 E113.0286
G1 X-53.44 Y-21.43 E113.1233
G1 X-52.51 Y-22.31 E113.4714
G1 X-52.17 Y-22.54 E113.5830
G1 X-51.19 Y-23.04 E113.8822
G1 X-50.87 Y-23.14 E113.9733
G1 X-49.80 Y-23.36 E114.2703
G1 X-49.52 Y-23.38 E114.3467
G1 X-46.02 Y-23.38 E115.2983
G1 X-45.29 Y-23.28 E115.4987
G1 X-44.17 Y-22.95 E115.8161
G1 X-43.20 Y-22.42 E116.1167
G1 X-42.96 Y-22.23 E116.1999
G1 X-42.19 Y-21.48 E116.4922
G1 X-41.64 Y-20.63 E116.7675
G1 X-41.22 Y-19.59 E117.0724
G1 X-41.03 Y-18.53 E117.3652
G1 X-41.02 Y-18.38 E117.4061
G1 X-41.02 Y-4.30 E121.2345
G1 X-19.16 Y-4.30 E127.1783
G1 X-19.16 Y-18.38 E131.0066
G1 X-19.07 Y-19.11 E131.2066
G1 X-18.73 Y-20.23 E131.5249
G1 X-18.20 Y-21.21 E131.8278
G1 X-18.02 Y-21.45 E131.9094
G1 X-17.26 Y-22.21 E132.2016
G1 X-16.42 Y-22.76 E132.4746
G1 X-15.37 Y-23.18 E132.7821
G1 X-14.32 Y-23.37 E133.0723
G1 X-14.16 Y-23.38 E133.1159
G1 X-11.53 Y-23.38 E133.8309
G1 X-11.24 Y-24.00 E134.0171
G1 X-10.57 Y-24.98 E134.3398
G1 X-9.56 Y-26.04 E134.7379
G1 X-8.61 Y-26.76 E135.0620
G1 X-7.99 Y-27.10 E135.2543
G1 X-10.63 Y-27.45 E135.9784
G1 X-14.95 Y-27.97 E137.1615
G1 X-19.36 Y-28.44 E138.3674
G1 X-23.65 Y-28.85 E139.5391
G1 X-28.07 Y-29.21 E140.7449
G1 X-32.43 Y-29.52 E141.9334
G1 X-36.74 Y-29.77 E143.1073
G1 X-41.31 Y-29.97 E144.3510
G1 X-43.09 Y-30.03 E144.8353
G1 X-43.36 Y-29.81 E144.9300
G1 X-44.51 Y-29.06 E145.3033
G1 X-45.00 Y-28.85 E145.4483
G1 X-46.36 Y-28.42 E145.8361
G1 X-46.85 Y-28.35 E145.9707
G1 X-48.30 Y-28.29 E146.3653
G1 X-48.82 Y-28.36 E146.5079
G1 X-50.24 Y-28.69 E146.9043
G1 X-50.63 Y-28.85 E147.0190
G1 X-51.84 Y-29.49 E147.3912
G1 X-52.09 Y-29.68 E147.4765
G1 X-53.21 Y-30.67 E147.8830
G1 X-53.61 Y-31.17 E148.0571
G1 X-54.36 Y-32.38 E148.4441
G1 X-54.84 Y-33.66 E148.8158
G1 X-54.95 Y-34.19 E148.9630
G1 X-55.08 Y-35.74 E149.3859
G1 X-55.01 Y-36.42 E149.5718
G1 X-54.73 Y-37.73 E149.9361
G1 X-54.60 Y-38.08 E150.0376
G1 X-53.92 Y-39.44 E150.4510
G1 X-53.61 Y-39.87 E150.5951
G1 X-52.69 Y-40.89 E150.9686
G1 X-52.25 Y-41.24 E151.1215
G1 X-51.03 Y-42.01 E151.5138
G1 X-50.58 Y-42.20 E151.6466
G1 X-49.05 Y-42.65 E152.0802
G1 X-48.63 Y-42.71 E152.1956
G1 X-44.29 Y-43.74 E153.4084
G1 X-39.67 Y-44.75 E154.6943
G1 X-35.01 Y-45.68 E155.9863
G1 X-30.34 Y-46.53 E157.2769
G1 X-25.66 Y-47.29 E158.5661
G1 X-20.97 Y-47.96 E159.8543
G1 X-16.26 Y-48.56 E161.1453
G1 X-11.54 Y-49.06 E162.4358
G1 X-6.81 Y-49.49 E163.7272
G1 X-2.09 Y-49.82 E165.0138
G1 X2.66 Y-50.09 E166.3074
G1 X7.31 Y-50.26 E167.5726
G1 X39.77 Y-50.26 E176.3985
G1 X41.20 Y-50.05 E176.7915
G1 X3.17 Y-14.84 F4200
G1 X3.17 Y-14.84
G1 X3.17 Y-11.24 E177.7703 F300
G1 X17.34 Y-11.24 E181.6232
G1 X17.34 Y-14.84 E182.6020
G1 X3.17 Y-14.84 E186.4549
G1 X18.29 Y-37.00 F4200
G1 X18.29 Y-37.00
G1 X18.29 Y-34.00 E187.2706 F300
G1 X32.02 Y-34.00 E191.0038
G1 X32.02 Y-37.00 E191.8195
G1 X18.29 Y-37.00 E195.5527
G1 X32.77 Y-34.82 F4200
G1 X32.77 Y-34.82
G1 X44.94 Y-46.99 E200.2324 F300
G1 X44.33 Y-47.61 E200.4688
G1 X43.70 Y-48.11 E200.6875
G1 X43.01 Y-48.55 E200.9100
G1 X42.49 Y-48.80 E201.0669
G1 X31.44 Y-37.75 E205.3159
G1 X27.18 Y-37.75 E206.4742
G1 X38.94 Y-49.50 E210.9943
G1 X34.69 Y-49.50 E212.1499
G1 X22.93 Y-37.75 E216.6700
G1 X32.21 Y-21.49 F4200
G1 X32.21 Y-21.49
G1 X52.08 Y-41.37 E224.3125 F300
G1 X52.53 Y-40.92 E224.4855
G1 X53.34 Y-39.88 E224.8439
G1 X53.80 Y-39.02 E225.1091
G1 X53.84 Y-38.87 E225.1513
G1 X36.46 Y-21.49 E231.8344
G1 X39.73 Y-21.49 E232.7235
G1 X40.70 Y-21.60 E232.9890
G1 X40.87 Y-21.64 E233.0365
G1 X46.68 Y-27.45 E235.2706
G1 X18.09 Y-11.63 F4200
G1 X18.09 Y-11.63
G1 X49.84 Y-43.38 E247.4793 F300
G1 X49.54 Y-43.62 E247.5838
G1 X47.86 Y-44.70 E248.1268
G1 X47.22 Y-45.02 E248.3214
G1 X17.79 Y-15.59 E259.6380
G1 X13.54 Y-15.59 E260.7936
G1 X31.20 Y-33.25 E267.5843
G1 X26.94 Y-33.25 E268.7426
G1 X9.28 Y-15.59 E275.5334
G1 X.52 Y5.94 F4200
G1 X.52 Y5.94
G1 X-18.41 Y24.87 E282.8125 F300
G1 X-18.41 Y29.13 E283.9708
G1 X.52 Y10.19 E291.2518
G1 X.52 Y14.45 E292.4101
G1 X-5.99 Y20.96 E294.9134
G1 X-18.41 Y33.38 E299.6892
G1 X-18.41 Y37.64 E300.8475
G1 X-5.99 Y25.21 E305.6253
G1 X-5.99 Y29.47 E306.7836
G1 X-18.14 Y41.62 E311.4556
G1 X-17.88 Y42.29 E311.6510
G1 X-17.41 Y43.00 E311.8826
G1 X-16.74 Y43.66 E312.1383
G1 X-16.58 Y43.79 E312.1943
G1 X-16.24 Y43.97 E312.2989
G1 X-5.99 Y33.72 E316.2403
G1 X-5.99 Y37.98 E317.3986
G1 X-12.64 Y44.63 E319.9557
G1 X-46.68 Y44.63 F4200
G1 X-46.68 Y44.63
G1 X-41.77 Y39.72 E321.8438 F300
G1 X-41.77 Y35.47 E322.9993
G1 X-50.70 Y44.39 E326.4313
G1 X-51.23 Y44.20 E326.5844
G1 X-52.08 Y43.70 E326.8525
G1 X-52.45 Y43.38 E326.9855
G1 X-53.14 Y42.58 E327.2727
G1 X-41.77 Y31.21 E331.6448
G1 X-41.77 Y26.95 E332.8031
G1 X-54.19 Y39.37 E337.5789
G1 X-54.20 Y39.27 E337.6062
G1 X-54.20 Y35.13 E338.7319
G1 X-41.77 Y22.70 E343.5116
G1 X-41.77 Y18.44 E344.6699
G1 X-54.20 Y30.87 E349.4495
G1 X-54.20 Y26.62 E350.6051
G1 X-24.04 Y-3.55 E362.2044
G1 X-28.29 Y-3.55 E363.3600
G1 X-54.20 Y22.36 E373.3231
G1 X-54.20 Y18.10 E374.4814
G1 X-32.55 Y-3.55 E382.8064
G1 X-36.80 Y-3.55 E383.9620
G1 X-54.20 Y13.85 E390.6528
G1 X-54.20 Y13.65 E390.7071
G1 X-54.00 Y11.93 E391.1780
G1 X-53.72 Y10.95 E391.4551
G1 X-53.03 Y9.49 E391.8941
G1 X-52.65 Y8.94 E392.0759
G1 X-50.88 Y6.95 E392.8001
G1 X-51.33 Y6.72 E392.9375
G1 X-41.06 Y-3.55 E396.8866
G1 X-41.77 Y-3.55 E397.0796
G1 X-41.77 Y-7.09 E398.0422
G1 X-53.57 Y4.70 E402.5777
G1 X-53.95 Y3.87 E402.8259
G1 X-54.02 Y3.58 E402.9070
G1 X-54.20 Y2.42 E403.2262
G1 X-54.20 Y1.08 E403.5906
G1 X-41.77 Y-11.34 E408.3683
G1 X-41.77 Y-15.60 E409.5266
G1 X-54.20 Y-3.17 E414.3063
G1 X-54.20 Y-7.43 E415.4646
G1 X-42.03 Y-19.59 E420.1424
G1 X-42.31 Y-20.29 E420.3474
G1 X-42.78 Y-21.00 E420.5789
G1 X-43.45 Y-21.66 E420.8346
G1 X-43.61 Y-21.79 E420.8907
G1 X-43.92 Y-21.96 E420.9868
G1 X-54.20 Y-11.68 E424.9398
G1 X-54.20 Y-15.94 E426.0980
G1 X-47.51 Y-22.63 E428.6706
G1 X-54.04 Y-37.38 F4200
G1 X-54.04 Y-37.38
G1 X-49.76 Y-41.66 E430.3163 F300
G1 X-48.90 Y-41.92 E430.5606
G1 X-48.50 Y-41.97 E430.6702
G1 X-44.16 Y-43.00 E431.8831
G1 X-53.89 Y-33.27 E435.6245
G1 X-53.68 Y-32.72 E435.7846
G1 X-52.99 Y-31.60 E436.1422
G1 X-52.67 Y-31.19 E436.2837
G1 X-52.16 Y-30.74 E436.4686
G1 X-38.74 Y-44.17 E441.6309
G1 X-34.88 Y-44.94 E442.7011
G1 X-33.45 Y-45.20 E443.0963
G1 X-49.39 Y-29.26 E449.2256
G1 X-48.68 Y-29.10 E449.4235
G1 X-48.27 Y-29.04 E449.5362
G1 X-46.92 Y-29.10 E449.9037
G1 X-46.53 Y-29.15 E450.0106
G1 X-45.26 Y-29.55 E450.3726
G1 X-44.87 Y-29.73 E450.4894
G1 X-44.31 Y-30.09 E450.6704
G1 X-28.30 Y-46.10 E456.8267
G1 X-25.55 Y-46.54 E457.5839
G1 X-23.27 Y-46.87 E458.2103
G1 X-39.50 Y-30.64 E464.4512
G1 X-36.70 Y-30.51 E465.2133
G1 X-35.44 Y-30.44 E465.5565
G1 X-18.34 Y-47.54 E472.1319
G1 X-16.18 Y-47.81 E472.7237
G1 X-13.54 Y-48.09 E473.4456
G1 X-31.42 Y-30.20 E480.3228
G1 X-28.01 Y-29.96 E481.2523
G1 X-27.46 Y-29.91 E481.4025
G1 X-8.82 Y-48.55 E488.5701
G1 X-6.75 Y-48.74 E489.1352
G1 X-4.20 Y-48.92 E489.8303
G1 X-23.53 Y-29.59 E497.2632
G1 X-19.64 Y-29.22 E498.3257
G1 X.35 Y-49.21 E506.0124
G1 X2.69 Y-49.34 E506.6496
G1 X4.81 Y-49.41 E507.2263
G1 X-15.80 Y-28.81 E515.1495
G1 X-14.87 Y-28.71 E515.4038
G1 X-11.98 Y-28.37 E516.1950
G1 X9.15 Y-49.50 E524.3201
G1 X13.41 Y-49.50 E525.4784
G1 X-8.21 Y-27.88 E533.7919
G1 X-7.36 Y-27.77 E534.0250
G1 X-7.16 Y-26.70 E534.3209
G1 X-8.21 Y-26.13 E534.6458
G1 X-9.06 Y-25.49 E534.9351
G1 X-9.98 Y-24.51 E535.3006
G1 X-10.58 Y-23.63 E535.5903
G1 X-11.05 Y-22.63 E535.8907
G1 X-13.47 Y-22.63 E536.5487
G1 X-18.41 Y-17.68 E538.4502
G1 X-18.41 Y-13.43 E539.6058
G1 X17.66 Y-49.50 E553.4757
G1 X21.92 Y-49.50 E554.6339
G1 X-18.41 Y-9.17 E570.1420
G1 X-18.41 Y-4.92 E571.2975
G1 X26.17 Y-49.50 E588.4397
G1 X30.43 Y-49.50 E589.5980
G1 X18.67 Y-37.75 E594.1181
G1 X17.54 Y-37.75 E594.4254
G1 X17.54 Y-36.61 E594.7353
G1 X-35.35 Y16.28 E615.0730
G1 X-31.10 Y16.28 E616.2285
G1 X18.43 Y-33.25 E635.2741
G1 X22.69 Y-33.25 E636.4325
G1 X5.03 Y-15.59 E643.2232
G1 X2.42 Y-15.59 E643.9329
G1 X2.42 Y-12.98 E644.6426
G1 X-26.84 Y16.28 E655.8938
G1 X-22.59 Y16.28 E657.0494
G1 X4.18 Y-10.49 E667.3432
G1 X8.44 Y-10.49 E668.5016
G1 X-18.41 Y16.36 E678.8261
G1 X-18.41 Y20.62 E679.9844
G1 X.53 Y1.67 E687.2693
G1 X12.69 Y-10.49 E691.9452
G1 X16.95 Y-10.49 E693.1035
G1 X4.79 Y1.67 E697.7793
G1 X9.04 Y1.67 E698.9349
G1 X31.97 Y-21.26 E707.7521
G1 X32.10 Y-20.27 E708.0236
G1 X32.10 Y-17.13 E708.8773
G1 X13.30 Y1.67 E716.1065
G1 X17.56 Y1.67 E717.2648
G1 X32.10 Y-12.87 E722.8558
G1 X32.10 Y-8.62 E724.0113
G1 X19.89 Y3.59 E728.7064
G1 X19.89 Y7.85 E729.8647
G1 X32.10 Y-4.36 E734.5598
G1 X32.10 Y-.11 E735.7154
G1 X19.89 Y12.10 E740.4104
G1 X19.89 Y16.36 E741.5687
G1 X32.10 Y4.15 E746.2638
G1 X32.10 Y8.40 E747.4193
G1 X21.05 Y19.45 E751.6684
G1 X21.57 Y19.97 E751.8683
G1 X21.73 Y20.09 E751.9226
G1 X22.58 Y20.55 E752.1854
G1 X23.57 Y20.85 E752.4667
G1 X23.87 Y20.89 E752.5490
G1 X32.10 Y12.66 E755.7137
G1 X32.10 Y15.65 E756.5267
G1 X31.86 Y17.16 E756.9425
G1 X28.22 Y20.79 E758.3402
G1 X-19.78 Y-3.55 F4200
G1 X-19.78 Y-3.55
G1 X-39.61 Y16.28 E765.9654 F300
;support-end
;layer:0.20
;support-start
;raft
M104 S210 T0
G1 Z.600 F420
G1 X41.20 Y-50.05 F4800
G1 X41.20 Y-50.05
G1 X42.44 Y-49.66 E766.0125 F3600
G1 X43.37 Y-49.21 E766.0500
G1 X44.14 Y-48.73 E766.0828
G1 X44.83 Y-48.17 E766.1150
G1 X45.45 Y-47.56 E766.1466
G1 X46.02 Y-46.86 E766.1793
G1 X46.43 Y-46.24 E766.2063
G1 X48.23 Y-45.36 E766.2789
G1 X49.98 Y-44.23 E766.3544
G1 X51.60 Y-42.93 E766.4297
G1 X53.09 Y-41.42 E766.5067
G1 X53.98 Y-40.28 E766.5591
G1 X54.48 Y-39.32 E766.5984
G1 X54.62 Y-38.94 E766.6130
G1 X54.84 Y-37.87 E766.6527
G1 X54.85 Y-37.58 E766.6632
G1 X54.79 Y-36.56 E766.7002
G1 X54.73 Y-36.29 E766.7102
G1 X54.38 Y-35.25 E766.7500
G1 X53.85 Y-34.35 E766.7879
G1 X53.67 Y-34.13 E766.7982
G1 X52.87 Y-33.36 E766.8385
G1 X51.94 Y-32.78 E766.8782
G1 X51.30 Y-32.52 E766.9033
G1 X50.74 Y-32.24 E766.9260
G1 X50.26 Y-31.95 E766.9463
G1 X49.81 Y-31.62 E766.9665
G1 X49.37 Y-31.23 E766.9878
G1 X48.96 Y-30.79 E767.0097
G1 X48.63 Y-30.38 E767.0287
G1 X48.29 Y-29.84 E767.0518
G1 X48.04 Y-29.38 E767.0708
G1 X47.80 Y-28.80 E767.0936
G1 X47.65 Y-28.32 E767.1118
G1 X47.23 Y-26.53 E767.1786
G1 X46.93 Y-25.72 E767.2099
G1 X46.53 Y-24.91 E767.2426
G1 X46.06 Y-24.18 E767.2741
G1 X45.51 Y-23.50 E767.3058
G1 X44.86 Y-22.85 E767.3391
G1 X44.20 Y-22.32 E767.3698
G1 X43.44 Y-21.82 E767.4028
G1 X42.66 Y-21.42 E767.4345
G1 X41.80 Y-21.10 E767.4678
G1 X40.83 Y-20.86 E767.5041
G1 X39.77 Y-20.74 E767.5427
G1 X32.80 Y-20.74 E767.7954
G1 X32.85 Y-20.32 E767.8107
G1 X32.85 Y15.72 E769.1173
G1 X32.59 Y17.33 E769.1764
G1 X32.18 Y18.48 E769.2207
G1 X31.87 Y19.04 E769.2439
G1 X31.14 Y20.00 E769.2876
G1 X30.90 Y20.22 E769.2994
G1 X30.03 Y20.89 E769.3392
G1 X29.06 Y21.36 E769.3783
G1 X28.73 Y21.47 E769.3909
G1 X27.47 Y21.68 E769.4372
G1 X24.14 Y21.68 E769.5579
